src/assets/images/logo2.svg

<svg width="152" height="30" viewBox="0 0 152 30" fill="none" xmlns="http://www.w3.org/2000/svg">
<path d="M1.88417 17.4297H0L2.87258 11.1538H5.22006L8.09264 17.4297H6.17759L5.6525 16.1248H2.40926L1.88417 17.4297ZM3.92277 12.4276L2.90347 14.882H5.1274L4.13899 12.4276H3.92277Z" fill="#2F4258"/>
<path d="M10.2852 17.3987H8.52463V12.5209H13.4049V13.7015H10.2852V17.3987Z" fill="#2F4258"/>
<path d="M20.3867 12.5209V17.4298H18.626V14.5715L15.877 17.4298H14.0546V12.5209H15.8152V15.4414L18.5643 12.5209H20.3867Z" fill="#2F4258"/>
<path d="M22.3932 12.5209H27.3353V16.2492H28.0148V18.1444H26.0998V17.4298H22.5477V18.1444H20.7871V16.2492H21.0033C21.2195 16.2492 21.4357 16.187 21.5902 16.0628C21.7755 15.9385 21.899 15.7831 22.0226 15.5657C22.1461 15.3482 22.2388 15.0686 22.3006 14.7579C22.3623 14.4472 22.3932 14.1054 22.3932 13.7015V12.5209ZM24.1539 13.7015V13.8258C24.1539 14.4161 24.0921 14.8821 23.9994 15.255C23.8759 15.6589 23.6905 16.0006 23.4434 16.2492H25.5747V13.7015H24.1539Z" fill="#2F4258"/>
<path d="M34.3167 15.3793H30.0233C30.0233 15.5036 30.0542 15.6589 30.116 15.7832C30.1777 15.9075 30.2704 16.0317 30.3631 16.1249C30.6102 16.3424 30.9499 16.4356 31.4133 16.4356C31.753 16.4356 32.0619 16.3735 32.2781 16.2181C32.3708 16.156 32.4634 16.0939 32.4943 16.0007C32.5561 15.9385 32.587 15.8453 32.6179 15.7832H34.255C34.1314 16.2803 33.8843 16.6842 33.4827 16.9949C32.9885 17.3677 32.309 17.5541 31.4441 17.5541C30.3322 17.5541 29.4982 17.3366 28.9422 16.8706C28.448 16.4667 28.2318 15.8453 28.2318 15.0686V14.789C28.2318 14.0433 28.4789 13.4841 28.9731 13.0491C29.5291 12.5831 30.3322 12.3656 31.4441 12.3656C31.9384 12.3656 32.3708 12.4277 32.7414 12.552C33.1121 12.6763 33.421 12.8627 33.6681 13.1112C33.8843 13.3287 34.0696 13.5773 34.1623 13.888C34.2858 14.1987 34.3167 14.5094 34.3167 14.8822C34.3167 14.9754 34.3167 15.0686 34.3167 15.1618V15.3793ZM30.0233 14.4161V14.4472H32.6797C32.6488 14.1365 32.5561 13.888 32.3708 13.7326C32.1546 13.5462 31.8148 13.4219 31.3824 13.4219C30.919 13.4219 30.5793 13.5462 30.3322 13.7637C30.2395 13.8569 30.1468 13.9501 30.116 14.0744C30.0542 14.1987 30.0233 14.2919 30.0233 14.4161Z" fill="#2F4258"/>
<path d="M41.6371 17.4297H39.8765V13.7636H37.4054V15.0685C37.4054 15.5035 37.3437 15.9074 37.251 16.2181C37.1583 16.5287 37.0039 16.7773 36.7877 16.9637C36.5715 17.1501 36.2935 17.3055 35.9228 17.3987C35.5522 17.4919 35.1197 17.554 34.5946 17.554V16.3423C34.8109 16.3423 34.9653 16.3113 35.1197 16.2802C35.2433 16.2181 35.3668 16.1559 35.4286 16.0627C35.4904 15.9695 35.5522 15.8452 35.583 15.7209C35.6139 15.5656 35.6139 15.4103 35.6139 15.1928V12.5519H41.6062V17.4297H41.6371Z" fill="#2F4258"/>
<path d="M42.3781 12.5209H44.1387V13.8258H45.5595C46.4553 13.8258 47.1348 13.9811 47.5673 14.2608C47.9997 14.5404 48.185 14.9754 48.185 15.5346V15.5967C48.185 15.8764 48.1232 16.156 47.9997 16.3735C47.8761 16.5909 47.7217 16.7774 47.5055 16.9327C47.2893 17.088 47.0422 17.1812 46.7642 17.2745C46.4862 17.3366 46.1464 17.3987 45.8066 17.3987H42.3781V12.5209ZM46.4244 15.6589V15.5967C46.4244 15.4414 46.3626 15.3171 46.2391 15.1928C46.0846 15.0686 45.8993 15.0375 45.6522 15.0375H44.1696V16.2492H45.6831C45.9302 16.2492 46.1155 16.187 46.2391 16.0938C46.3317 16.0006 46.4244 15.8453 46.4244 15.6589Z" fill="#2F4258"/>
<path d="M62.7944 11.1538V17.4297H61.0646L61.0955 13.7947L61.1573 13.3286H61.1264L57.5434 17.4297H55.7519V11.1538H57.4816L57.4507 14.9442L57.389 15.3792H57.4198L61.0646 11.1849H62.7944V11.1538Z" fill="#2F4258"/>
<path d="M65.3886 17.4298H63.628V12.5209H65.3886V14.3851H68.1376V12.5209H69.8983V17.4298H68.1376V15.6278H65.3886V17.4298Z" fill="#2F4258"/>
<path d="M70.732 17.4298V12.5209H74.315C75.0563 12.5209 75.6432 12.6452 76.0447 12.8938C76.2301 13.018 76.3845 13.1423 76.4772 13.3287C76.5698 13.4841 76.6316 13.7016 76.6316 13.888V14.0122C76.6316 14.4472 76.3845 14.7579 75.8903 14.9443C76.1683 15.0375 76.3845 15.1929 76.539 15.3482C76.6934 15.5346 76.7861 15.7521 76.7861 16.0007V16.0939C76.7861 16.5288 76.6007 16.8395 76.1992 17.0881C75.7976 17.3056 75.2417 17.4298 74.4386 17.4298H70.732ZM74.7783 13.9812V13.9501C74.7783 13.7948 74.7166 13.6705 74.593 13.6083C74.4695 13.5462 74.3459 13.5151 74.1606 13.5151H72.4309V14.4472H74.1606C74.2224 14.4472 74.2841 14.4472 74.3459 14.4161C74.4077 14.3851 74.4695 14.3851 74.5312 14.354C74.7166 14.2608 74.7783 14.1365 74.7783 13.9812ZM74.9328 15.9385C74.9328 15.7521 74.871 15.6278 74.7474 15.5346C74.6239 15.4414 74.4386 15.4103 74.2224 15.4103H72.4309V16.4046H74.2841C74.5003 16.4046 74.6548 16.3735 74.7474 16.2803C74.9019 16.2181 74.9328 16.0939 74.9328 15.9385Z" fill="#2F4258"/>
<path d="M83.2734 15.3793H78.98C78.98 15.5036 79.0109 15.6589 79.0727 15.7832C79.1344 15.9075 79.2271 16.0318 79.3198 16.125C79.5669 16.3425 79.9067 16.4357 80.37 16.4357C80.7097 16.4357 81.0186 16.3735 81.2348 16.2182C81.3275 16.156 81.4202 16.0939 81.451 16.0007C81.5128 15.9386 81.5437 15.8454 81.5746 15.7832H83.2117C83.0881 16.2803 82.841 16.6842 82.4395 16.9949C81.9453 17.3677 81.2657 17.5541 80.4008 17.5541C79.2889 17.5541 78.4549 17.3367 77.8989 16.8706C77.4047 16.4667 77.1885 15.8454 77.1885 15.0686V14.789C77.1885 14.0434 77.4356 13.4841 77.9298 13.0491C78.4858 12.5831 79.2889 12.3656 80.4008 12.3656C80.8951 12.3656 81.3275 12.4278 81.6981 12.552C82.0688 12.6763 82.3777 12.8627 82.6248 13.1113C82.841 13.3288 83.0263 13.5773 83.119 13.888C83.2425 14.1987 83.2734 14.5094 83.2734 14.8822C83.2734 14.9754 83.2734 15.0686 83.2734 15.1618V15.3793ZM78.98 14.4162V14.4472H81.6364C81.6055 14.1366 81.5128 13.888 81.3275 13.7327C81.1113 13.5462 80.7715 13.422 80.3391 13.422C79.8758 13.422 79.536 13.5462 79.2889 13.7637C79.1962 13.8569 79.1036 13.9501 79.0727 14.0744C79.0109 14.1987 78.98 14.2919 78.98 14.4162Z" fill="#2F4258"/>
<path d="M89.9451 14.3851H88.3389C88.2463 14.1055 88.1227 13.9191 87.9065 13.7948C87.6594 13.6395 87.3505 13.5773 86.949 13.5773C86.7328 13.5773 86.5165 13.6084 86.3312 13.6705C86.1459 13.7327 85.9915 13.8259 85.8988 13.9191C85.7752 14.0123 85.7134 14.1676 85.6517 14.2919C85.5899 14.4472 85.559 14.6026 85.559 14.7579V15.1618C85.559 15.3482 85.5899 15.5036 85.6517 15.6279C85.7134 15.7832 85.8061 15.9075 85.9297 16.0007C86.0532 16.125 86.2077 16.1871 86.3621 16.2492C86.5474 16.3114 86.7328 16.3425 86.9799 16.3425C87.3814 16.3425 87.6903 16.2803 87.9065 16.125C88.1227 16.0007 88.2772 15.7832 88.3698 15.5036H89.976C89.9451 15.7832 89.8524 16.0318 89.7289 16.2492C89.6053 16.4978 89.42 16.6842 89.2038 16.8706C88.6787 17.2745 87.9374 17.492 87.0108 17.492C85.9297 17.492 85.0957 17.2745 84.5397 16.8085C84.2926 16.591 84.1073 16.3425 83.9837 16.0628C83.8602 15.7832 83.7984 15.4415 83.7984 15.0997V14.7579C83.7984 14.4162 83.8602 14.0744 83.9837 13.7948C84.1073 13.5152 84.2926 13.2666 84.5397 13.0491C84.8177 12.8317 85.1266 12.6452 85.559 12.552C85.9606 12.4278 86.4548 12.3656 87.0108 12.3656C87.6285 12.3656 88.1845 12.4588 88.6169 12.6452C89.0185 12.8317 89.3273 13.0491 89.5744 13.3598C89.7289 13.6705 89.8833 13.9812 89.9451 14.3851Z" fill="#2F4258"/>
<path d="M95.752 13.6705H93.806V17.4298H92.0454V13.6705H90.0995V12.5209H95.752V13.6705Z" fill="#2F4258"/>
<path d="M102.053 15.0374H103.845C103.783 15.4103 103.69 15.752 103.505 16.0316C103.32 16.3423 103.104 16.5909 102.826 16.8084C102.517 17.0259 102.146 17.2123 101.745 17.3365C101.312 17.4608 100.849 17.523 100.293 17.523C99.6751 17.523 99.1191 17.4608 98.6249 17.3055C98.1307 17.1812 97.7291 16.9637 97.4202 16.7152C97.1114 16.4666 96.8642 16.1559 96.7098 15.7831C96.5554 15.4103 96.4627 15.0064 96.4627 14.5403V13.9811C96.4627 13.5151 96.5554 13.1112 96.7098 12.7383C96.8642 12.3655 97.1114 12.0548 97.4202 11.8063C97.76 11.5577 98.1615 11.3402 98.6249 11.216C99.1191 11.0917 99.6442 10.9985 100.293 10.9985C101.343 10.9985 102.177 11.216 102.795 11.682C103.104 11.8995 103.32 12.1791 103.505 12.4898C103.69 12.8005 103.814 13.1422 103.845 13.5461H102.053C101.961 13.1422 101.775 12.8315 101.436 12.6141C101.127 12.3966 100.725 12.3034 100.262 12.3034C99.9839 12.3034 99.7368 12.3344 99.4897 12.3966C99.2426 12.4587 99.0264 12.583 98.872 12.7073C98.6866 12.8626 98.5322 13.018 98.4395 13.2354C98.3469 13.4529 98.2851 13.6704 98.2851 13.95V14.6025C98.2851 14.8821 98.3469 15.1306 98.4395 15.3171C98.5322 15.5345 98.6866 15.6899 98.872 15.8452C99.0573 15.9695 99.2426 16.0627 99.4897 16.1559C99.7368 16.2181 99.9839 16.2491 100.262 16.2491C100.725 16.2491 101.127 16.1249 101.436 15.9074C101.745 15.721 101.961 15.4103 102.053 15.0374Z" fill="#2F4258"/>
<path d="M109.96 13.6704H108.014V17.4298H106.254V13.6704H104.308V12.5209H109.96V13.6704Z" fill="#2F4258"/>
<path d="M112.278 18.9211H110.517V12.5209H112.278V13.1422C112.463 12.8937 112.679 12.7384 112.957 12.6141C113.266 12.4898 113.637 12.3966 114.069 12.3966C114.533 12.3966 114.903 12.4587 115.274 12.583C115.614 12.7073 115.923 12.8937 116.139 13.1422C116.355 13.3597 116.54 13.6394 116.633 13.919C116.757 14.2297 116.818 14.5404 116.818 14.851V15.1307C116.818 15.4724 116.757 15.7831 116.633 16.0627C116.51 16.3424 116.355 16.622 116.108 16.8395C115.861 17.0569 115.583 17.2434 115.243 17.3676C114.903 17.4919 114.502 17.554 114.069 17.554C113.637 17.554 113.266 17.4919 112.957 17.3366C112.679 17.2123 112.463 17.0259 112.278 16.8084V18.9211ZM114.996 15.0996V14.851C114.996 14.6646 114.965 14.5093 114.903 14.3539C114.842 14.1986 114.749 14.0743 114.656 13.95C114.409 13.7015 114.069 13.5772 113.606 13.5772C113.143 13.5772 112.803 13.7015 112.556 13.9811C112.34 14.2297 112.247 14.5404 112.247 14.9442V15.0685C112.247 15.5035 112.371 15.8452 112.618 16.0627C112.834 16.2802 113.174 16.4045 113.606 16.4045C113.822 16.4045 114.039 16.3734 114.224 16.3113C114.409 16.2491 114.533 16.1559 114.656 16.0317C114.78 15.9074 114.873 15.7831 114.903 15.6278C114.965 15.4414 114.996 15.286 114.996 15.0996Z" fill="#2F4258"/>
<path d="M117.22 15.1307V14.82C117.22 14.0743 117.467 13.484 117.93 13.0801C118.486 12.6141 119.289 12.3966 120.401 12.3966C121.482 12.3966 122.316 12.6141 122.872 13.0801C123.119 13.2976 123.305 13.5461 123.428 13.8258C123.552 14.1054 123.614 14.4471 123.614 14.82V15.1307C123.614 15.8763 123.367 16.4356 122.903 16.8705C122.347 17.3366 121.544 17.5851 120.432 17.5851C119.32 17.5851 118.517 17.3676 117.961 16.9016C117.714 16.6841 117.529 16.4356 117.405 16.1559C117.282 15.8142 117.22 15.4724 117.22 15.1307ZM118.98 14.82V15.1307C118.98 15.3171 119.011 15.4724 119.073 15.6278C119.135 15.7831 119.228 15.9074 119.32 16.0317C119.444 16.1559 119.598 16.2491 119.753 16.3113C119.938 16.3734 120.123 16.4045 120.37 16.4045C120.834 16.4045 121.204 16.2802 121.421 16.0627C121.544 15.9385 121.637 15.8142 121.668 15.6588C121.73 15.5035 121.76 15.3481 121.76 15.1617V14.851C121.76 14.6646 121.73 14.5093 121.668 14.3539C121.606 14.1986 121.513 14.0743 121.421 13.95C121.174 13.7015 120.834 13.6083 120.34 13.6083C119.876 13.6083 119.506 13.7326 119.258 13.95C119.135 14.0432 119.073 14.1986 119.011 14.3539C118.95 14.5093 118.98 14.6336 118.98 14.82Z" fill="#2F4258"/>
<path d="M130.563 12.5209V17.4298H128.803V14.5714L126.054 17.4298H124.231V12.5209H125.992V15.4414L128.741 12.5209H130.563ZM128.679 11.9306H126.023V10.781H128.679V11.9306Z" fill="#2F4258"/>
<path d="M135.166 0.683517L151.197 11.278C151.197 11.3402 151.197 11.4334 151.197 11.4955C151.197 11.5577 151.197 11.5887 151.197 11.6509L145.884 14.851L135.135 7.6119V0.683517H135.166ZM135.042 0C134.795 0 134.548 0.217483 134.548 0.497103V7.67403C134.548 7.82938 134.641 8.01579 134.764 8.109L145.853 15.5966L151.784 11.9926C151.753 11.9926 151.753 10.9673 151.722 10.9673L135.289 0.0932069C135.228 0.031069 135.135 0 135.042 0Z" fill="#2F4258"/>
<path d="M151.784 10.9673L151.228 10.5945L151.197 10.5634C151.197 10.5634 151.197 10.5634 151.228 10.5945C151.444 10.7809 151.259 10.9362 151.228 10.9673L134.795 21.8415C134.641 21.9347 134.579 22.09 134.579 22.2764V29.4844C134.579 29.8883 135.012 30.1369 135.351 29.9194L151.784 19.0452C151.938 18.952 152 18.7967 152 18.6103V11.3712C152 11.2159 151.907 11.0605 151.784 10.9673Z" fill="#2F4258"/>
<path d="M54.0853 15.7209H49.8846V14.2607H54.0853V15.7209Z" fill="#2F4258"/>
</svg>

<svg width="152" height="30" fill="none" xmlns="http://www.w3.org/2000/svg"><path d="M1.884 17.43H0l2.873-6.276H5.22l2.873 6.276H6.178l-.526-1.305H2.41l-.525 1.305Zm2.039-5.002-1.02 2.454h2.224l-.988-2.454h-.216ZM10.285 17.399h-1.76V12.52h4.88v1.18h-3.12V17.4ZM20.387 12.52v4.91h-1.761v-2.858l-2.749 2.858h-1.822v-4.91h1.76v2.921l2.75-2.92h1.822ZM22.393 12.52h4.942v3.73h.68v1.894H26.1v-.714h-3.552v.714h-1.76V16.25h.215a.947.947 0 0 0 .587-.186c.186-.124.309-.28.433-.497a2.75 2.75 0 0 0 .278-.808c.061-.31.092-.653.092-1.056V12.52Zm1.76 1.181v.125c0 .59-.06 1.056-.154 1.429-.123.404-.308.746-.556.994h2.132v-2.547h-1.421ZM34.317 15.38h-4.294c0 .124.031.279.093.403.062.125.154.249.247.342.247.217.587.31 1.05.31.34 0 .649-.061.865-.217.093-.062.185-.124.216-.217.062-.063.093-.156.124-.218h1.637a2.12 2.12 0 0 1-.772 1.212c-.494.373-1.174.56-2.039.56-1.112 0-1.946-.218-2.502-.684-.494-.404-.71-1.026-.71-1.802v-.28c0-.746.247-1.305.741-1.74.556-.466 1.36-.683 2.471-.683.494 0 .927.062 1.297.186.371.124.68.31.927.56.216.217.402.465.494.776.124.31.155.621.155.994v.497Zm-4.294-.964v.031h2.657c-.031-.31-.124-.559-.31-.714-.215-.187-.555-.311-.988-.311-.463 0-.803.124-1.05.342-.093.093-.185.186-.216.31a.711.711 0 0 0-.093.342ZM41.637 17.43h-1.76v-3.666h-2.472v1.305c0 .434-.061.838-.154 1.15-.093.31-.247.558-.463.745a2.064 2.064 0 0 1-.865.435 5.38 5.38 0 0 1-1.328.155v-1.212c.216 0 .37-.03.525-.062.123-.062.247-.124.309-.217.061-.093.123-.218.154-.342.03-.155.03-.31.03-.528v-2.641h5.993v4.878h.031ZM42.378 12.52h1.76v1.306h1.422c.895 0 1.575.155 2.007.435.433.28.618.714.618 1.274v.062c0 .28-.062.559-.185.777a1.7 1.7 0 0 1-.495.559c-.216.155-.463.248-.74.341a4.475 4.475 0 0 1-.958.125h-3.429V12.52Zm4.046 3.139v-.062c0-.156-.061-.28-.185-.404-.154-.124-.34-.155-.587-.155H44.17v1.211h1.513c.247 0 .432-.062.556-.155a.631.631 0 0 0 .185-.435ZM62.794 11.154v6.276h-1.73l.032-3.635.061-.466h-.03l-3.584 4.1h-1.791v-6.275h1.73l-.031 3.79-.062.435h.03l3.646-4.194h1.73v-.031ZM65.389 17.43h-1.761v-4.91h1.76v1.865h2.75v-1.864h1.76v4.909h-1.76v-1.802h-2.75v1.802ZM70.732 17.43v-4.91h3.583c.741 0 1.328.125 1.73.374.185.124.34.248.432.435.093.155.155.373.155.559v.124c0 .435-.248.746-.742.932.278.093.495.249.649.404.154.187.247.404.247.653v.093c0 .435-.185.745-.587.994-.401.218-.957.342-1.76.342h-3.707Zm4.046-3.449v-.03c0-.156-.061-.28-.185-.343a.893.893 0 0 0-.432-.093h-1.73v.932h1.73c.061 0 .123 0 .185-.03.062-.032.123-.032.185-.063.186-.093.247-.217.247-.373Zm.155 1.957c0-.186-.062-.31-.186-.403-.123-.094-.308-.125-.525-.125h-1.791v.995h1.853c.216 0 .37-.032.463-.125.155-.062.186-.186.186-.342ZM83.273 15.38H78.98c0 .124.03.279.093.403.061.125.154.249.247.342.247.218.587.31 1.05.31.34 0 .649-.061.865-.217.093-.062.185-.124.216-.217.062-.062.093-.156.124-.218h1.637a2.12 2.12 0 0 1-.773 1.212c-.494.373-1.173.56-2.038.56-1.112 0-1.946-.218-2.502-.684-.494-.404-.71-1.026-.71-1.802v-.28c0-.746.247-1.305.74-1.74.557-.466 1.36-.683 2.472-.683.494 0 .927.062 1.297.186.37.124.68.31.927.56.216.217.401.465.494.776.124.31.154.621.154.994v.497Zm-4.293-.964v.031h2.656c-.03-.31-.123-.559-.308-.714-.217-.187-.556-.311-.989-.311-.463 0-.803.124-1.05.342-.093.093-.185.186-.216.31a.711.711 0 0 0-.093.342ZM89.945 14.385H88.34c-.093-.28-.216-.466-.433-.59-.247-.155-.556-.218-.957-.218-.216 0-.433.031-.618.094-.185.062-.34.155-.432.248-.124.093-.186.249-.247.373-.062.155-.093.31-.093.466v.404c0 .186.03.342.093.466.061.155.154.28.278.373.123.124.278.186.432.248.185.062.37.094.618.094.401 0 .71-.063.926-.218.217-.124.371-.342.464-.621h1.606c-.03.28-.124.528-.247.745-.124.249-.309.435-.525.622-.525.404-1.267.621-2.193.621-1.081 0-1.915-.218-2.471-.684a2.142 2.142 0 0 1-.556-.745 2.433 2.433 0 0 1-.186-.963v-.342c0-.342.062-.684.186-.963.123-.28.309-.528.556-.746a2.417 2.417 0 0 1 1.019-.497c.402-.124.896-.186 1.452-.186.618 0 1.174.093 1.606.28.401.186.71.403.957.714.155.31.31.621.371 1.025ZM95.752 13.67h-1.946v3.76h-1.76v-3.76h-1.947v-1.15h5.653v1.15ZM102.053 15.037h1.792c-.062.373-.155.715-.34.995-.185.31-.401.559-.679.776-.309.218-.68.404-1.081.529a5.152 5.152 0 0 1-1.452.186c-.618 0-1.174-.062-1.668-.218a3.132 3.132 0 0 1-1.205-.59 2.348 2.348 0 0 1-.71-.932 3.183 3.183 0 0 1-.247-1.243v-.559c0-.466.092-.87.247-1.243.154-.372.401-.683.71-.932a3.64 3.64 0 0 1 1.205-.59 6.588 6.588 0 0 1 1.668-.217c1.05 0 1.884.217 2.502.683.309.217.525.497.71.808.185.31.309.652.34 1.056h-1.792c-.092-.404-.278-.714-.617-.932-.309-.217-.711-.31-1.174-.31-.278 0-.525.03-.772.093a1.652 1.652 0 0 0-.618.31c-.185.156-.34.311-.433.528a1.736 1.736 0 0 0-.154.715v.652c0 .28.062.529.154.715.093.217.248.373.433.528.185.124.37.218.618.31.247.063.494.094.772.094.463 0 .865-.124 1.174-.342.309-.186.525-.497.617-.87ZM109.96 13.67h-1.946v3.76h-1.76v-3.76h-1.946v-1.15h5.652v1.15ZM112.278 18.921h-1.761v-6.4h1.761v.621c.185-.248.401-.404.679-.528.309-.124.68-.217 1.112-.217.464 0 .834.062 1.205.186.34.124.649.31.865.56.216.217.401.496.494.776.124.31.185.621.185.932v.28c0 .341-.061.652-.185.932-.123.28-.278.559-.525.777a2.697 2.697 0 0 1-.865.528c-.34.124-.741.186-1.174.186-.432 0-.803-.062-1.112-.217a1.912 1.912 0 0 1-.679-.529v2.113Zm2.718-3.821v-.249a1.29 1.29 0 0 0-.093-.497c-.061-.155-.154-.28-.247-.404-.247-.248-.587-.373-1.05-.373-.463 0-.803.124-1.05.404-.216.249-.309.56-.309.963v.124c0 .436.124.777.371.995.216.217.556.341.988.341.216 0 .433-.03.618-.093.185-.062.309-.155.432-.28.124-.124.217-.248.247-.403.062-.187.093-.342.093-.528ZM117.22 15.13v-.31c0-.746.247-1.336.71-1.74.556-.466 1.359-.683 2.471-.683 1.081 0 1.915.217 2.471.683.247.218.433.466.556.746.124.28.186.621.186.994v.31c0 .746-.247 1.306-.711 1.74-.556.467-1.359.715-2.471.715s-1.915-.217-2.471-.683a2.149 2.149 0 0 1-.556-.746 3.01 3.01 0 0 1-.185-1.025Zm1.76-.31v.31c0 .187.031.342.093.498.062.155.155.28.247.404.124.124.278.217.433.28.185.061.37.092.617.092.464 0 .834-.124 1.051-.341.123-.124.216-.249.247-.404a1.29 1.29 0 0 0 .092-.497v-.311c0-.186-.03-.342-.092-.497-.062-.155-.155-.28-.247-.404-.247-.248-.587-.342-1.081-.342-.464 0-.834.125-1.082.342-.123.093-.185.249-.247.404-.061.155-.031.28-.031.466ZM130.563 12.52v4.91h-1.76V14.57l-2.749 2.859h-1.823v-4.91h1.761v2.921l2.749-2.92h1.822Zm-1.884-.59h-2.656v-1.149h2.656v1.15ZM135.166.684l16.031 10.594v.373l-5.313 3.2-10.749-7.24V.685h.031ZM135.042 0a.51.51 0 0 0-.494.497v7.177c0 .155.093.342.216.435l11.089 7.488 5.931-3.604c-.031 0-.031-1.026-.062-1.026L135.289.093a.347.347 0 0 0-.247-.093Z" fill="#fff"/><path d="m151.784 10.967-.556-.373-.031-.03.031.03c.216.187.031.342 0 .373l-16.433 10.874c-.154.094-.216.249-.216.435v7.208c0 .404.433.653.772.435l16.433-10.874c.154-.093.216-.248.216-.435v-7.239a.533.533 0 0 0-.216-.404ZM54.085 15.72h-4.2v-1.46h4.2v1.46Z" fill="#fff"/></svg>
